X: 21446
T: Kevin Loughlin's
R: jig
M: 6/8
K: Dmajor
d2f edB|BAd BAF|D3 BAF|E3 EFA|
d2f edB|BAd BAF|G2B AFD|1 Ace d2c:|2 Ace d2e||
|:f3 dfa|g3 dgb|f2a baf|efe a2g|
f3 dc=c|B3 GBd|a3 bge|1 edc d2e:|2 edc d2z||

